X:94404
T:Here Comes the Sun (Beatles)
H:
B:
C:Beatles
O:Kevin Fraser
Z:Kevin Fraser
Q:1/4=120
% K:HP
K:Dmaj
M:none
M:4/4
L:1/8
R:March
U:V = !accent!
V:M name="Melody" sname="Melody" gstem=up stem=down " " 
V:H name="Harmony" sname="Harmony" gstem=up stem=down " " 
V:C name="Bass" sname="Bass" gstem=up stem=down " 
V:S clef=perc name="Snare" sname="Snare" middle=G gstem=up stem=down dyn=up stafflines=1 " " " 
V:B clef=none name="Bass" sname="Bass" gstem=up stem=down dyn=up " " 
V:T clef=none name="Tenor" sname="Tenor" gstem=up stem=down dyn=up " " 
V:BB clef=bass octave=-1 transpose=-1 name="Brass Bass" sname="ABCD-C" gstem=up stem=down " " 
V:BC transpose=-1 name="Brass Chord" sname="ABCD-D" gstem=up stem=down " " 
V:BD transpose=-1 name="Brass Chord 2" sname="ABCD-B" gstem=up stem=down " " 
V:P octave=-1 name="Piano" gstem=up stem=down " 
I:MIDI=program 110
%%MIDI gracedivider 4
% %MIDI gchord 
%%MIDI beatstring 
% %alignbars 8
% %landscape
I:linebreak $
%%score {M H}
% %MIDI program 109 #bagpipes
%%MIDI vol 100
% %MIDI droneon
% %landscape
% %barsperstaff 4
%%score {M H C}
[V:M] "D"z2 fd ef-fd- | "D"d2 fe-ed-dB | "G"Bd-de-ed-dB | "A7"cB cd-de3 | $
[V:H] dAa4Ad | dAa4AB | dGdG3d2 | AG AB-Bc3 | $
[V:C] d8 | d8 | G8 | A8 | $
[V:M] "D"z2 fd ef-fd- | "D"d2 fe-ed-dB | "G"Bd-de-ed-dc- | "A7"c6 z2 |] $
[V:H] dAa4Ad | dAa4AB | d4-d3 g- | g6 z2 |] $
[V:C] d8 | d8 | G4-G3 A- | A6 z2 |] $
[V:M] "D"z2 fe-ef-fd- | "D"d2 fd ef3 | "Gmaj7"z2 fe-ef-fd- | "E7/G#"d3d e2 d2 | $
[V:H] da-ag-ga-aB | dA A6| eG B4 Gd | GA/B/ de gedB | $
[V:C] A8 | A8 | G8 | G8 | $
[V:M] "D"z2 fe- ed-dA | "G"Bde"D/F#"A de"Em7"Gd |e"D"Ade "A7"dcBA |] $
[V:H] dA B3 dA2 | g2 e2 d2 d2- | d d3 A2 z2 |] $
[V:C] d8 | G2-Gd-d2 e2- |ed d2 A2 A2 |]$


